outputs/icons/social/youtube_sharp.svg

<svg xmlns="http://www.w3.org/2000/svg" width="1200" height="1200" fill="none"><g clip-path="url(#a)"><path fill="#000" d="M1090.02 401.738s-9.765-68.906-39.765-99.257c-38.03-39.825-80.645-40.02-100.195-42.344C810.135 250 600.215 250 600.215 250h-.43s-209.922 0-349.863 10.137c-19.532 2.324-62.149 2.519-100.195 42.344C119.746 332.832 110 401.738 110 401.738s-10 80.938-10 161.857v75.86c0 80.915 10 161.855 10 161.855s9.765 68.905 39.727 99.255C187.773 940.39 237.754 939.12 260 943.3c80.078 7.675 340 10.06 340 10.06s210.135-.335 350.06-10.43c19.53-2.345 62.165-2.54 100.195-42.365 29.98-30.35 39.765-99.255 39.765-99.255s9.98-80.94 9.98-161.855v-75.86c0-80.919-9.98-161.857-9.98-161.857M496.758 731.385V450.43l270.157 140.955z"/></g><defs><clipPath id="a"><path fill="#fff" d="M0 0h1200v1200H0z"/></clipPath></defs></svg>

<svg width="1200" height="1200" viewBox="0 0 1200 1200" fill="none" xmlns="http://www.w3.org/2000/svg"><g clip-path="url(#clip0_788_1968)"><path d="M1090.02 401.738C1090.02 401.738 1080.255 332.832 1050.255 302.481C1012.225 262.656 969.61 262.461 950.06 260.137C810.135 250 600.215 250 600.215 250H599.785C599.785 250 389.863 250 249.922 260.137C230.39 262.461 187.773 262.656 149.727 302.481C119.746 332.832 110 401.738 110 401.738C110 401.738 100 482.676 100 563.595V639.455C100 720.37 110 801.31 110 801.31C110 801.31 119.765 870.215 149.727 900.565C187.773 940.39 237.754 939.12 260 943.3C340.078 950.975 600 953.36 600 953.36C600 953.36 810.135 953.025 950.06 942.93C969.59 940.585 1012.225 940.39 1050.255 900.565C1080.235 870.215 1090.02 801.31 1090.02 801.31C1090.02 801.31 1100 720.37 1100 639.455V563.595C1100 482.676 1090.02 401.738 1090.02 401.738ZM496.758 731.385V450.43L766.915 591.385L496.758 731.385Z" fill="#1D1E23"/></g><defs><clipPath id="clip0_788_1968"><path width="24" fill="white" d="M0 0H1200V1200H0V0z"/></clipPath></defs></svg>
